Sources/FrostedUI/Resources/Icons.xcassets/shieldHalf20.imageset/shield-half-20.svg

<svg width="20" height="20" viewBox="0 0 20 20" fill="none" xmlns="http://www.w3.org/2000/svg" data-fui-icon="true">
  <path
    fill-rule="evenodd"
    clip-rule="evenodd"
    d="M16.542 3.68253L10.501 1.66852C10.34 1.61452 10.17 1.58752 9.99998 1.58752C9.83098 1.58752 9.66198 1.61452 9.49898 1.66852L3.45798 3.68253C3.38198 3.70753 3.31998 3.75451 3.25098 3.79051C2.73898 4.05051 2.39898 4.55652 2.38298 5.14052C2.38298 5.15552 2.37598 5.16952 2.37598 5.18452V9.92752C2.37598 10.2185 2.39197 10.4995 2.42197 10.7715C2.42997 10.8435 2.44698 10.9095 2.45698 10.9795C2.71198 12.7785 3.60597 14.1785 4.79697 15.3085C4.81497 15.3255 4.83698 15.3405 4.85498 15.3575C5.18198 15.6645 5.52998 15.9535 5.89198 16.2245C5.89998 16.2305 5.90698 16.2365 5.91398 16.2425C7.09898 17.1285 8.42697 17.8455 9.64397 18.5015C9.70897 18.5365 9.78097 18.5395 9.85098 18.5535C9.90198 18.5645 9.94898 18.5915 9.99998 18.5915C10.122 18.5915 10.245 18.5615 10.356 18.5015C13.594 16.7545 17.625 14.5805 17.625 9.92851V5.18552C17.625 4.50252 17.189 3.89852 16.542 3.68452V3.68253ZM16.125 9.92651C16.125 13.5435 13.071 15.3255 9.99998 16.9875V3.10052L10.026 3.09152L16.068 5.10652C16.101 5.11752 16.125 5.14952 16.125 5.18452V9.92752V9.92651Z"
    fill="currentColor"
  />
</svg>

<svg xmlns="http://www.w3.org/2000/svg" width="20" height="20" fill="none" data-fui-icon="true" viewBox="0 0 20 20"><path fill="currentColor" fill-rule="evenodd" d="m16.542 3.683-6.041-2.014a1.58 1.58 0 0 0-1.002 0L3.458 3.683c-.076.025-.138.072-.207.108a1.56 1.56 0 0 0-.868 1.35c0 .015-.007.029-.007.044v4.743q0 .435.046.843c.008.072.025.138.035.208.255 1.8 1.149 3.2 2.34 4.33q.029.024.058.049a12 12 0 0 0 1.059.884c1.185.886 2.513 1.604 3.73 2.26.065.035.137.038.207.052.051.01.098.038.149.038a.75.75 0 0 0 .356-.09c3.238-1.747 7.269-3.921 7.269-8.573V5.186c0-.683-.436-1.287-1.083-1.501zm-.417 6.244c0 3.617-3.054 5.399-6.125 7.06V3.102l.026-.01 6.042 2.016a.08.08 0 0 1 .057.078z" clip-rule="evenodd"/></svg>
